src/assets/jigsaw.svg

<svg width="512" height="512" fill="none" xmlns="http://www.w3.org/2000/svg"><path d="M507.661 503.322V399.907a34.728 34.728 0 0 0-14.805-28.438l-65.25-45.681a26.034 26.034 0 0 0-14.935-4.703h-52.536l.868 148.48c.321 15.473 10.431 29.028 25.166 33.757h121.492Z" fill="#8E5227"/><path d="M455.593 503.322h-60.746c-19.17 0-34.712-15.542-34.712-34.712v-34.712h60.746l34.712 69.424Z" fill="#8E5227"/><path d="M229.966 60.746a43.283 43.283 0 0 0-17.356 3.662V0H56.407C27.648 0 4.339 23.309 4.339 52.068v156.203h64.408c-9.633-21.938.338-47.538 22.285-57.17 21.938-9.633 47.538.338 57.17 22.285a43.366 43.366 0 0 1 0 34.894h64.408v-64.408c21.938 9.633 47.538-.338 57.17-22.285 9.632-21.947-.338-47.538-22.285-57.17a43.187 43.187 0 0 0-17.529-3.671Z" fill="#6FD7A3"/><path d="M420.881 52.068C420.881 23.309 397.572 0 368.814 0H212.61v64.408c21.938-9.633 47.538.338 57.17 22.285 9.633 21.938-.338 47.538-22.285 57.17a43.366 43.366 0 0 1-34.894 0v64.408h64.408c-9.633 21.938.338 47.538 22.285 57.17 21.938 9.633 47.538-.338 57.17-22.285a43.366 43.366 0 0 0 0-34.894h64.417V52.068Z" fill="#EC5469"/><path d="M420.881 57.023C371.278 126.03 281.73 165.228 212.61 186.325v21.947h64.408c-9.633 21.938.338 47.538 22.285 57.17 21.938 9.633 47.538-.338 57.17-22.285a43.366 43.366 0 0 0 0-34.894h64.408V57.023Z" fill="#E5374E"/><path d="M195.254 277.695a43.283 43.283 0 0 1 17.356 3.662v-73.086h-64.408c9.633-21.938-.338-47.538-22.285-57.17-21.947-9.633-47.538.338-57.17 22.285a43.366 43.366 0 0 0 0 34.894H4.339v156.203c0 28.759 23.309 52.068 52.068 52.068H212.61v-55.73c-21.938 9.633-47.538-.338-57.17-22.285-9.633-21.938.338-47.538 22.285-57.17a43.187 43.187 0 0 1 17.529-3.671Z" fill="#FFC243"/><path d="M4.339 364.475c0 28.759 23.309 52.068 52.068 52.068H212.61v-55.73c-21.834 9.615-47.33-.286-56.945-22.12a43.28 43.28 0 0 1-3.645-16.063A379.553 379.553 0 0 1 4.338 355.476v8.999h.001Z" fill="#EE9A38"/><path d="m443.574 389.641-54.906-146.658-60.303 22.71c16.809 17.122 16.549 44.631-.573 61.431-17.122 16.801-44.631 16.549-61.431-.573a43.45 43.45 0 0 1-12.375-32.837l-60.295 22.71 25.687 68.634a42.976 42.976 0 0 0-17.529 2.673c-22.407 8.695-33.514 33.905-24.819 56.311 8.548 22.016 33.098 33.202 55.322 25.183a43.053 43.053 0 0 0 14.969-9.563L266.9 512l146.241-55.079c26.953-10.205 40.569-40.301 30.433-67.28Z" fill="#8BC9FE"/><path d="M415.258 314.012c-59.878 89.557-172.127 120.832-237.872 131.601 9.225 21.947 34.495 32.256 56.441 23.031a43.027 43.027 0 0 0 13.494-8.982L266.9 512l146.241-55.079c26.945-10.205 40.552-40.283 30.434-67.254l-28.317-75.655Z" fill="#3DB2FF"/><path d="M229.966 60.746a43.283 43.283 0 0 0-17.356 3.662V51.816C147.63 111.633 59.592 144.67 4.339 160.768v47.503h64.408c-9.633-21.938.338-47.538 22.285-57.17 21.938-9.633 47.538.338 57.17 22.285a43.366 43.366 0 0 1 0 34.894h64.408v-64.408c21.938 9.633 47.538-.338 57.17-22.285 9.632-21.947-.338-47.538-22.285-57.17a43.187 43.187 0 0 0-17.529-3.671Z" fill="#3EC3A4"/><path d="M403.682 390.665c-8.305-8.47-21.903-8.609-30.373-.304-8.47 8.305-8.609 21.903-.304 30.373.104.104.2.208.304.304l30.217 30.217c0 28.759 23.309 52.068 52.068 52.068h52.068v-8.678l-103.98-103.98Z" fill="#8E5227"/></svg>

<svg width="512" height="512" viewBox="0 0 512 512" fill="none" xmlns="http://www.w3.org/2000/svg">
<path d="M507.661 503.322V399.907C507.661 388.582 502.133 377.969 492.856 371.469L427.606 325.788C423.232 322.725 418.017 321.085 412.671 321.085H360.135L361.003 469.565C361.324 485.038 371.434 498.593 386.169 503.322H507.661V503.322Z" fill="#8E5227"/>
<path d="M455.593 503.322H394.847C375.677 503.322 360.135 487.78 360.135 468.61V433.898H420.881L455.593 503.322Z" fill="#8E5227"/>
<path d="M229.966 60.746C223.987 60.755 218.077 62.004 212.61 64.408V0H56.407C27.648 0 4.33899 23.309 4.33899 52.068V208.271H68.747C59.114 186.333 69.085 160.733 91.032 151.101C112.97 141.468 138.57 151.439 148.202 173.386C153.088 184.502 153.088 197.164 148.202 208.28H212.61V143.872C234.548 153.505 260.148 143.534 269.78 121.587C279.412 99.64 269.442 74.049 247.495 64.417C241.976 61.978 236.006 60.737 229.966 60.746Z" fill="#6FD7A3"/>
<path d="M420.881 52.068C420.881 23.309 397.572 0 368.814 0H212.61V64.408C234.548 54.775 260.148 64.746 269.78 86.693C279.413 108.631 269.442 134.231 247.495 143.863C236.379 148.749 223.717 148.749 212.601 143.863V208.271H277.009C267.376 230.209 277.347 255.809 299.294 265.441C321.232 275.074 346.832 265.103 356.464 243.156C361.35 232.04 361.35 219.378 356.464 208.262H420.881V52.068Z" fill="#EC5469"/>
<path d="M420.881 57.0229C371.278 126.03 281.73 165.228 212.61 186.325V208.272H277.018C267.385 230.21 277.356 255.81 299.303 265.442C321.241 275.075 346.841 265.104 356.473 243.157C361.359 232.041 361.359 219.379 356.473 208.263H420.881V57.0229V57.0229Z" fill="#E5374E"/>
<path d="M195.254 277.695C201.233 277.704 207.143 278.953 212.61 281.357V208.271H148.202C157.835 186.333 147.864 160.733 125.917 151.101C103.97 141.468 78.379 151.439 68.747 173.386C63.861 184.502 63.861 197.164 68.747 208.28H4.33899V364.483C4.33899 393.242 27.648 416.551 56.407 416.551H212.61V360.821C190.672 370.454 165.072 360.483 155.44 338.536C145.807 316.598 155.778 290.998 177.725 281.366C183.244 278.927 189.214 277.686 195.254 277.695Z" fill="#FFC243"/>
<path d="M4.33901 364.475C4.33901 393.234 27.648 416.543 56.407 416.543H212.61V360.813C190.776 370.428 165.28 360.527 155.665 338.693C153.435 333.625 152.194 328.167 152.02 322.63C105.497 343.379 55.269 354.548 4.33801 355.476V364.475H4.33901Z" fill="#EE9A38"/>
<path d="M443.574 389.641L388.668 242.983L328.365 265.693C345.174 282.815 344.914 310.324 327.792 327.124C310.67 343.925 283.161 343.673 266.361 326.551C257.805 317.83 253.309 305.915 253.986 293.714L193.691 316.424L219.378 385.058C213.416 384.72 207.446 385.631 201.849 387.731C179.442 396.426 168.335 421.636 177.03 444.042C185.578 466.058 210.128 477.244 232.352 469.225C237.949 467.116 243.052 463.853 247.321 459.662L266.9 512L413.141 456.921C440.094 446.716 453.71 416.62 443.574 389.641Z" fill="#8BC9FE"/>
<path d="M415.258 314.012C355.38 403.569 243.131 434.844 177.386 445.613C186.611 467.56 211.881 477.869 233.827 468.644C238.852 466.535 243.434 463.481 247.321 459.662L266.9 512L413.141 456.921C440.086 446.716 453.693 416.638 443.575 389.667L415.258 314.012Z" fill="#3DB2FF"/>
<path d="M229.966 60.746C223.987 60.755 218.077 62.004 212.61 64.408V51.816C147.63 111.633 59.592 144.67 4.33899 160.768V208.271H68.747C59.114 186.333 69.085 160.733 91.032 151.101C112.97 141.468 138.57 151.439 148.202 173.386C153.088 184.502 153.088 197.164 148.202 208.28H212.61V143.872C234.548 153.505 260.148 143.534 269.78 121.587C279.412 99.64 269.442 74.049 247.495 64.417C241.976 61.978 236.006 60.737 229.966 60.746Z" fill="#3EC3A4"/>
<path d="M403.682 390.665C395.377 382.195 381.779 382.056 373.309 390.361C364.839 398.666 364.7 412.264 373.005 420.734C373.109 420.838 373.205 420.942 373.309 421.038L403.526 451.255C403.526 480.014 426.835 503.323 455.594 503.323H507.662V494.645L403.682 390.665Z" fill="#8E5227"/>
</svg>
